!!!CDT:
!!!PTL: Canzonette a tre voci. Libro primo
!!!PPP: Venice
!!!PPR: Giacomo Vincenzi
!!!PDT: 1602
!!!PUB-format:
!!!RISM: C 943
!!!AGN: Madrigal
!!!SCT: Tsg14001f
!!!SCA: Tsg14001f
!!!original-voices: 3
!!!extant-voices: 3
!!!complete: Y
!!!final: G
!!!COM: Caprioli, Giovanni Paolo
!!!OTL: Usciva omai dal molle e fresco grembo
**kern	**text	**kern	**text	**kern	**text
*part3	*part3	*part2	*part2	*part1	*part1
*staff3	*staff3	*staff2	*staff2	*staff1	*staff1
*I"Basso	*	*I"Tenore	*	*I"Canto	*
*I'B	*	*I'T	*	*I'C	*
*oclefC3	*	*oclefG2	*	*oclefG2	*
*clefGv2	*	*clefG2	*	*clefG2	*
*k[b-]	*	*k[b-]	*	*k[b-]	*
*F:	*	*F:	*	*F:	*
*omet(C)	*	*omet(C)	*	*omet(C)	*
*M2/2	*	*M2/2	*	*M2/2	*
=1	=1	=1	=1	=1	=1
4G	U-	4b-y	U-	2r	.
8G	-sci-	8b-y	-sci-	.	.
8A	-va o-	8cc	-va o-	.	.
4B-y	-mai	4dd	-mai	4dd	U-
4G	del	4b-y	del	8dd	-sci-
.	.	.	.	8ee	-va o-
=2	=2	=2	=2	=2	=2
2.F	mol-	2.a	mol-	4ff	-mai
.	.	.	.	4dd	del
.	.	.	.	[2cc	mol-
4F	-le e	4a	-le e	.	.
=3	=3	=3	=3	=3	=3
4F	fre-	4a	fre-	4cc]	.
4G	-sco	4g	-sco	4b-y	-le e
2E-X	grem-	[2gg	grem-	4b-y	fre-
.	.	.	.	4g	-sco
=4	=4	=4	=4	=4	=4
1D	-bo	2gg]	.	2b-y	grem-
.	.	2ff#X	-bo	2a	-bo
=5	=5	=5	=5	=5	=5
4d	De	2r	.	4ff	De
8d	la	.	.	8ff	la
8d	gran	.	.	8ff	gran
4d	ma-	4aa	De	4ff	ma-
4d	-dre	8aa	la	4ff	-dre
.	.	8aa	gran	.	.
=6	=6	=6	=6	=6	=6
2.c	sua	4aa	ma-	1ee	su-
.	.	4aa	-dre	.	.
.	.	[2gg	su-	.	.
4c	la	.	.	.	.
=7	=7	=7	=7	=7	=7
4.B-y	not-	2gg]	.	4dd	-a,
.	.	.	.	8dd	De
8c	.	.	.	8dd	la
4.d	.	2ff	-a,	4dd	gran
.	.	.	.	4dd	ma-
8e	.	.	.	.	.
=8	=8	=8	=8	=8	=8
2f	.	4a	De	2.cc	-dre
.	.	8a	la	.	.
.	.	8a	gran	.	.
2F	-t'o-	4a	ma-	.	.
.	.	4a	-dre	4cc	su-
=9	=9	=9	=9	=9	=9
4.G	-scu-	4g	su-	4.b-y	-a
.	.	4g	-a	.	.
8A	.	.	.	8cc	la
4.B-y	.	4f	la	4.dd	not-
.	.	4b-y	not-	.	.
8c	.	.	.	8ee	-t'o-
=10	=10	=10	=10	=10	=10
1d	.	4a	-t'o-	4ff	-scu-
.	.	2g	-scu-	4gg	.
.	.	.	.	2aa	.
.	.	4f#X	.	.	.
=11	=11	=11	=11	=11	=11
1G	-ra;-	1g	-ra;-	1gg	-ra;-
=12:|!	=12:|!	=12:|!	=12:|!	=12:|!	=12:|!
1G	-ra;	1g	-ra;	2gg	-ra;
.	.	.	.	4dd	Au-
.	.	.	.	4dd	-re
=13!|:	=13!|:	=13!|:	=13!|:	=13!|:	=13!|:
4d	Au-	2r	.	4dd	lie-
4d	-re	.	.	8dd	-vi,
.	.	.	.	8ee	por-
4d	lie-	4a	Au-	4ff	-tan-
8d	-vi	4a	-re	4dd	-do e
8e	por-	.	.	.	.
=14	=14	=14	=14	=14	=14
4f	-tan-	4a	lie-	4cc	lar-
4d	-do, e	8a	-vi	4dd	-go
.	.	8b-y	por-	.	.
4c	lar-	4cc	-tan-	4ee-X	nem-
4d	-go	4a	-do, e	8ddL	.
.	.	.	.	8ccJ	.
=15	=15	=15	=15	=15	=15
4e-X	nem-	4g	lar-	8b-yL	.
.	.	.	.	8cc	.
8dL	.	4a	-go	8dd	.
8cJ	.	.	.	8eenXiJ	.
8B-yL	.	4b-y	nem-	[2ff	.
8c	.	.	.	.	.
8d	.	8aL	.	.	.
8enXiJ	.	8gJ	.	.	.
=16	=16	=16	=16	=16	=16
1f	.	4a	.	4ff]	.
.	.	2b-y	.	8eeL	.
.	.	.	.	8ddJ	.
.	.	.	.	2cc	.
.	.	4a	.	.	.
=17	=17	=17	=17	=17	=17
1B-y	-bo	1b-y	-bo	1dd	-bo
=18	=18	=18	=18	=18	=18
2.f	Di	2r	.	1r	.
.	.	[2cc	Di	.	.
8e-X	sua	.	.	.	.
8d	ru-	.	.	.	.
=19	=19	=19	=19	=19	=19
2e-i	-gia-	4cc]	.	1r	.
.	.	8b-y	sua	.	.
.	.	8a	ru-	.	.
4e-i	-da	2b-y	-gia-	.	.
8B-y	pre-	.	.	.	.
8c	-ci-	.	.	.	.
=20	=20	=20	=20	=20	=20
2d	-o-	4b-y	-da	2.ff	Di
.	.	8f	pre-	.	.
.	.	8g	-ci-	.	.
2c	-sa e	2a	-o-	.	.
.	.	.	.	8ee-X	sua
.	.	.	.	8dd	ru-
=21	=21	=21	=21	=21	=21
8cL	pu-	2g	-sa e	2ee-i	-gia-
8B-y	.	.	.	.	.
8c	.	.	.	.	.
8dJ	.	.	.	.	.
4.e-X	.	8gL	pu-	4ee-i	-da
.	.	8f	.	.	.
.	.	8g	.	8b-y	pre-
16dL	.	8aJ	.	8cc	-ci-
16cJ	.	.	.	.	.
=22	=22	=22	=22	=22	=22
8B-yL	.	8b-yL	.	4dd	-o-
8c	.	8a	.	.	.
8d	.	8f	.	4dd	-sa e
8B-yJ	.	8gJ	.	.	.
8cL	.	8eL	.	[2cc	pu-
8d	.	8f	.	.	.
8e-X	.	8g	.	.	.
8cJ	.	8eJ	.	.	.
=23	=23	=23	=23	=23	=23
1d	.	4f#X	.	4cc]	.
.	.	2g	.	4b-y	.
.	.	.	.	2a	.
.	.	4f#X	.	.	.
=24	=24	=24	=24	=24	=24
1G	-ra.-	1g	-ra.-	2g	-ra.
.	.	.	.	4dd	Au-
.	.	.	.	4dd	-re-
=25:|!	=25:|!	=25:|!	=25:|!	=25:|!	=25:|!
1Gl	-ra.	1gl	-ra.	1gl	-ra.
==	==	==	==	==	==
*-	*-	*-	*-	*-	*-
!!!system-decoration: [*]
!!!RDF**kern: i = editorial accidental
!!!RDF**kern: l = terminal long
!!!ENC: Emiliano Ricciardi
!!!END: 2019/08/08
!!!EED: Ricciardi, Emiliano
!!!EEV: 2019/08/08
!!!YEC: Copyright 2018 Emiliano Ricciardi, All Rights Reserved
!!!ONB: Translated from MusicXML on 2019/08/08 and edited by Craig Stuart Sapp
!!@@BEGIN:	VERSEDATA
!!@CATALOGNUM:	Tsg14001
!!@LAST_MODIFIED: 2020/07/12
!!@TITLE:		Usciva omai dal molle e fresco grembo
!!@CANTO:		XIV
!!@OTTAVA:	1
!!@MANUSRC:	G-Al, G-Au, G-Br<sub>1</sub>, G-Br<sub>2</sub>, G-Es<sub>1</sub>, G-Es<sub>2</sub>, G-Es<sub>3</sub>, G-F, G-Fr, G-Fr<sub>1</sub>, G-Fr<sub>2</sub>, G-Mc<sub>1</sub>, G-Mg, G-Mr, G-Mt, G-N
!!@PRINTSRC:	G-1580CM, G-1581B, G-1581CV, G-1581R, G-1581MR, G-1581P, G-1581V, G-1581V<sub>bis</sub>, G-1582C, G-1582M, G-1582MC, G-1582P, G-1582SC, G-1582SC<sub>bis</sub>, G-1583S, G-1584O, G-1584S, G-1585C, G-1585S, G-1588S, G-1589S, G-1590B, G-1590S, G-1592S, G-1593S, G-1594C, G-1595C, G-1597C, G-1598C, G-1599C, G-1600C, G-1600S, G-1601C, G-1601R, G-1602C, G-1604C, G-1604Cl, G-1604F, G-1604P, G-1606B, G-1606B<sub>bis</sub>, G-1606L, G-1607ZR, G-1608DP, G-1609GC, G-1610M, G-1611S, G-1611V, G-1612P, G-1613M, G-1613P, G-1613V, G-1615P, G-1616M, G-1617P, G-1619B, G-1619V, G-1620M, G-1620S, G-1621R, G-1624I, G-1624MT, G-1625C, G-1625S, G-1625SS, G-1626C, G-1626Co, G-1627M, G-1628T, G-1628Tu, G-1630L, G-1630T, G-1632FT, G-1639CF, G-1642M, G-1643I, G-1644P, G-1644S
!!@@BEGIN:	VERSES
!!@ABOUTIT:
!!@ABOUTEN:
!!@EDITOR:	Angelo Solerti
!!@EDITION_TITLE: Gerusalemme liberata. Poema eroico di Torquato Tasso. Edizione critica sui manoscritti e le prime stampe.
!!@EDITION_LOC:	Florence
!!@EDITION_PUB:	G. Barbera
!!@EDITION_DATE:  1895
!!@EDITION_VOL:
!!@EDITION_PAGE:
!!@TRANSLATOR:	Emiliano Ricciardi
!!@VERSE:
!!	Usciva omai dal molle e fresco grembo
!!	Della gran madre sua la notte oscura;
!!	Aure lievi portando, e largo nembo
!!	Di sua rugiada preziosa e pura:
!!	E scuotendo del vel l’umido lembo
!!	Ne spargeva i fioretti e la verdura:
!!	E i venticelli, dibattendo l’ali,
!!	Lusingavano il sonno de’ mortali.
!!@MVERSE_DATE: 20230824
!!@MVERSE:
!!	Usciva omai dal molle e fresco grembo			=a
!!	Della gran madre sua la notte oscura;			=b
!!	Aure lievi portando, e largo nembo			=a
!!	Di sua rugiada preziosa e pura:				=b
!!	E scuotendo del vel l’umido lembo			=a
!!	Ne spargeva i fioretti e la verdura:			=b
!!	E i venticelli, dibattendo l’ali,			=c
!!	Lusingavano il sonno de’ mortali.			=c
!!@TVERSE:
!!	Already emerging from the soft and fresh hollow
!!	Of his great mother was the dark night;
!!	Bearing light breezes and a broad cloud
!!	Of its dew, precious and pure:
!!	And shaking the damp hem of the veil
!!	[The night] was scattering [droplets upon] little flowers and the verge:
!!	And the little winds, beating their wings,
!!	Were tempting the sleep from mortals.
!!@@END:		VERSES
!!@OTHER_CRIT_ED:  Torquato Tasso, <i>Gerusalemme liberata</i>, ed. Lanfranco Caretti, 2 vols. (Bari: Laterza, 1967).
!!@ATTRIBUTION_ABOUT:
!!@DATING:	mid-1560s through 1570s
!!@DEDICATEE:	Duke Alfonso II d'Este
!!@COMMENTARY:
!!@@END:		VERSEDATA
!!@@BEGIN: SETTING
!!@CATALOGNUM:	Tsg14001f
!!@CANTO:		XIV
!!@OTTAVA:	1
!!@TITLE:	Usciva omai dal molle e fresco grembo
!!@SETTINGTITLE: Usciva omai del molle e fresco grembo
!!@COMPOSER:	Caprioli, Giovanni Paolo
!!@PARTS:		1 of 1
!!@PRINCEPSTITLE:	Canzonette a tre voci. Libro primo
!!@PRINCEPSLOC:	Venice
!!@NORMLOC:	Venice
!!@NORMPUB:	Giacomo Vincenzi
!!@NORMPUBSHORT:	G. Vincenzi
!!@PRINCEPSPUB:	Giacomo Vincenti
!!@PRINCEPSYEAR:	1602
!!@PRINCEPSRISM:	C 943
!!@OVOICES:	3
!!@EXTANTVOICES:	3
!!@OMENSURATION:	C
!!@OCLEFS:	G2,G2,C3
!!@OTIME:		
!!@OKEYSIG:	b-
!!@FINAL:		G
!!@TIMPEDITOR:	Ricciardi, Emiliano
!!@REPRINTS:	
!!@@END: SETTING
